local/share/icons/dracula-icons-main/scalable/mimetypes/application-rss_xml.svg

<?xml version="1.0" encoding="UTF-8"?>
<svg xmlns="http://www.w3.org/2000/svg" xmlns:xlink="http://www.w3.org/1999/xlink" width="64" height="64" viewBox="0 0 64 64">
<defs>
<filter id="filter-remove-color" x="0%" y="0%" width="100%" height="100%">
<feColorMatrix color-interpolation-filters="sRGB" values="0 0 0 0 1 0 0 0 0 1 0 0 0 0 1 0 0 0 1 0" />
</filter>
<mask id="mask-0">
<g filter="url(#filter-remove-color)">
<rect x="-6.4" y="-6.4" width="76.8" height="76.8" fill="rgb(0%, 0%, 0%)" fill-opacity="0.15"/>
</g>
</mask>
<linearGradient id="linear-pattern-0" gradientUnits="userSpaceOnUse" x1="49.570999" y1="52.714001" x2="51.714001" y2="54.856998" gradientTransform="matrix(0.617345, 0, 0, 0.617345, -18.167916, -19.050025)">
<stop offset="0" stop-color="rgb(0%, 0%, 0%)" stop-opacity="1"/>
<stop offset="1" stop-color="rgb(0%, 0%, 0%)" stop-opacity="0"/>
</linearGradient>
<clipPath id="clip-0">
<rect x="0" y="0" width="17" height="17"/>
</clipPath>
<g id="source-11308" clip-path="url(#clip-0)">
<path fill-rule="evenodd" fill="url(#linear-pattern-0)" d="M 14.816406 12.171875 L 11.113281 15.875 L 13.492188 15.875 C 14.226562 15.875 14.816406 15.285156 14.816406 14.550781 Z M 14.816406 12.171875 "/>
</g>
</defs>
<path fill-rule="nonzero" fill="rgb(98.823529%, 56.078431%, 21.176471%)" fill-opacity="1" d="M 3.441406 1.058594 L 13.492188 1.058594 C 14.222656 1.058594 14.816406 1.652344 14.816406 2.382812 L 14.816406 14.550781 C 14.816406 15.28125 14.222656 15.875 13.492188 15.875 L 3.441406 15.875 C 2.707031 15.875 2.117188 15.28125 2.117188 14.550781 L 2.117188 2.382812 C 2.117188 1.652344 2.707031 1.058594 3.441406 1.058594 Z M 3.441406 1.058594 "/>
<g mask="url(#mask-0)">
<use xlink:href="#source-11308"/>
</g>
<path fill-rule="nonzero" fill="rgb(100%, 100%, 100%)" fill-opacity="1" d="M 3.738281 13.707031 C 3.738281 13.542969 3.792969 13.40625 3.90625 13.296875 C 4.015625 13.1875 4.164062 13.125 4.316406 13.128906 C 4.476562 13.128906 4.609375 13.183594 4.722656 13.296875 C 4.832031 13.40625 4.890625 13.542969 4.890625 13.707031 C 4.890625 13.859375 4.832031 14.003906 4.722656 14.113281 C 4.617188 14.21875 4.46875 14.28125 4.316406 14.277344 C 4.164062 14.28125 4.015625 14.21875 3.90625 14.113281 C 3.796875 14.007812 3.734375 13.859375 3.738281 13.707031 M 3.707031 11.097656 L 3.707031 12.058594 C 4.933594 12.058594 5.929688 13.058594 5.929688 14.285156 L 6.894531 14.285156 C 6.894531 12.523438 5.464844 11.097656 3.703125 11.097656 Z M 3.707031 8.992188 L 3.707031 10.058594 C 6.039062 10.058594 7.929688 11.953125 7.929688 14.285156 L 8.996094 14.285156 C 8.996094 11.363281 6.628906 8.996094 3.707031 8.992188 Z M 3.707031 8.992188 "/>
</svg>

<svg width="64" height="64" version="1.1" viewBox="0 0 16.933 16.933" xmlns="http://www.w3.org/2000/svg">
 <defs>
  <linearGradient id="a" x1="49.571" x2="51.714" y1="52.714" y2="54.857" gradientTransform="matrix(2.3333,0,0,2.3333,-68.667,-72.001)" gradientUnits="userSpaceOnUse">
   <stop offset="0"/>
   <stop stop-opacity="0" offset="1"/>
  </linearGradient>
 </defs>
 <g transform="scale(.26458)">
  <rect x="8" y="4" width="48" height="56" ry="5" fill="#fc8f36" style="paint-order:stroke fill markers"/>
  <path d="m56 46-14 14h9c2.77 0 5-2.23 5-5z" fill="url(#a)" fill-rule="evenodd" opacity=".15" stroke-width="8.8191" style="paint-order:stroke fill markers"/>
 </g>
 <path d="m30.581 3.9566-3.1749-3.1749v1.852c0 0.73288 0.59001 1.3229 1.3229 1.3229z" fill="#fff" fill-rule="evenodd" opacity=".35" style="paint-order:stroke fill markers"/>
 <path d="m3.7381 13.706c0-0.163 0.056-0.3 0.169-0.41a0.56 0.56 0 0 1 0.411-0.168c0.159 0 0.293 0.056 0.403 0.168 0.112 0.11 0.168 0.247 0.168 0.41a0.554 0.554 0 0 1-0.168 0.406 0.548 0.548 0 0 1-0.403 0.165 0.565 0.565 0 0 1-0.411-0.165 0.548 0.548 0 0 1-0.169-0.406m-0.033-2.61v0.962c1.228 0 2.225 0.999 2.225 2.229h0.964c0-1.762-1.43-3.19-3.19-3.19zm1e-3 -2.102v1.063a4.229 4.229 0 0 1 4.224 4.23h1.066a5.294 5.294 0 0 0-5.29-5.293z" fill="#fff" font-size="13.59" font-weight="700"/>
</svg>
